X: 9215
T: Dan Breen's
R: reel
M: 4/4
K: Adorian
|:e2 dB GAAG|E ~A3 ABcd|e2 dB GAAG|EGG/G/G GABd:|
|:e3g edBd|e ~A3 e~A3|deeg edBd|1 d/d/ded g z2 a:|2 d/d/ded g z2 d||

